dist/flags/s/410.svg

<svg width="16" height="12" viewBox="0 0 16 12" fill="none" xmlns="http://www.w3.org/2000/svg">
<mask id="mask0" mask-type="alpha" maskUnits="userSpaceOnUse" x="0" y="0" width="16" height="12">
<rect width="16" height="12" fill="white"/>
</mask>
<g mask="url(#mask0)">
<path fill-rule="evenodd" clip-rule="evenodd" d="M0 0V12H16V0H0Z" fill="#F7FCFF"/>
<mask id="mask1" mask-type="alpha" maskUnits="userSpaceOnUse" x="0" y="0" width="16" height="12">
<path fill-rule="evenodd" clip-rule="evenodd" d="M0 0V12H16V0H0Z" fill="white"/>
</mask>
<g mask="url(#mask1)">
<path fill-rule="evenodd" clip-rule="evenodd" d="M7.8933 9.28579C9.60142 9.28579 10.9861 7.86776 10.9861 6.11854C10.9861 4.36932 9.60142 2.95129 7.8933 2.95129C6.18518 2.95129 4.80048 4.36932 4.80048 6.11854C4.80048 7.86776 6.18518 9.28579 7.8933 9.28579Z" fill="#3D58DB"/>
<mask id="mask2" mask-type="alpha" maskUnits="userSpaceOnUse" x="4" y="2" width="7" height="8">
<path fill-rule="evenodd" clip-rule="evenodd" d="M7.8933 9.28579C9.60142 9.28579 10.9861 7.86776 10.9861 6.11854C10.9861 4.36932 9.60142 2.95129 7.8933 2.95129C6.18518 2.95129 4.80048 4.36932 4.80048 6.11854C4.80048 7.86776 6.18518 9.28579 7.8933 9.28579Z" fill="white"/>
</mask>
<g mask="url(#mask2)">
<path fill-rule="evenodd" clip-rule="evenodd" d="M11.0943 6.36114C11.0943 6.36114 10.9207 4.86768 9.63502 4.78661C8.34933 4.70553 8.00266 5.88182 7.92847 6.19346C7.85428 6.50511 7.6665 7.33645 6.31282 7.33645C4.95914 7.33645 4.83704 5.22252 4.83704 5.22252V2.72986H11.0943V6.36114Z" fill="#E31D1C"/>
</g>
<path fill-rule="evenodd" clip-rule="evenodd" d="M3.64967 1.02612L4.10715 1.43989L1.98702 3.91584L1.52954 3.50208L3.64967 1.02612ZM4.40416 1.6957L4.86165 2.10947L2.81751 4.54955L2.36003 4.13579L4.40416 1.6957ZM5.61268 2.78729L5.1552 2.37353L3.10539 4.83213L3.56287 5.24589L5.61268 2.78729Z" fill="#272727"/>
<path d="M4.10715 1.43989L4.16412 1.48867L4.21159 1.43322L4.15746 1.38426L4.10715 1.43989ZM3.64967 1.02612L3.69998 0.970499L3.64282 0.918807L3.5927 0.977342L3.64967 1.02612ZM1.98702 3.91584L1.93671 3.97146L1.99387 4.02315L2.04399 3.96462L1.98702 3.91584ZM1.52954 3.50208L1.47257 3.45329L1.4251 3.50874L1.47923 3.5577L1.52954 3.50208ZM4.86165 2.10947L4.91914 2.15763L4.96551 2.10228L4.91195 2.05384L4.86165 2.10947ZM4.40416 1.6957L4.45447 1.64008L4.3967 1.58782L4.34667 1.64754L4.40416 1.6957ZM2.81751 4.54955L2.76721 4.60517L2.82498 4.65743L2.87501 4.59771L2.81751 4.54955ZM2.36003 4.13579L2.30254 4.08762L2.25617 4.14297L2.30973 4.19141L2.36003 4.13579ZM5.1552 2.37353L5.20551 2.31791L5.1476 2.26553L5.0976 2.3255L5.1552 2.37353ZM5.61268 2.78729L5.67029 2.83532L5.71642 2.77999L5.66299 2.73167L5.61268 2.78729ZM3.10539 4.83213L3.04779 4.7841L3.00166 4.83943L3.05508 4.88776L3.10539 4.83213ZM3.56287 5.24589L3.51256 5.30152L3.57048 5.3539L3.62048 5.29392L3.56287 5.24589ZM4.15746 1.38426L3.69998 0.970499L3.59936 1.08175L4.05684 1.49551L4.15746 1.38426ZM2.04399 3.96462L4.16412 1.48867L4.05018 1.3911L1.93005 3.86706L2.04399 3.96462ZM1.47923 3.5577L1.93671 3.97146L2.03733 3.86021L1.57985 3.44645L1.47923 3.5577ZM3.5927 0.977342L1.47257 3.45329L1.58651 3.55086L3.70664 1.0749L3.5927 0.977342ZM4.91195 2.05384L4.45447 1.64008L4.35386 1.75133L4.81134 2.16509L4.91195 2.05384ZM2.87501 4.59771L4.91914 2.15763L4.80415 2.0613L2.76002 4.50139L2.87501 4.59771ZM2.30973 4.19141L2.76721 4.60517L2.86782 4.49392L2.41034 4.08016L2.30973 4.19141ZM4.34667 1.64754L2.30254 4.08762L2.41753 4.18395L4.46166 1.74386L4.34667 1.64754ZM5.1049 2.42915L5.56238 2.84292L5.66299 2.73167L5.20551 2.31791L5.1049 2.42915ZM3.163 4.88016L5.21281 2.42156L5.0976 2.3255L3.04779 4.7841L3.163 4.88016ZM3.61318 5.19027L3.1557 4.77651L3.05508 4.88776L3.51256 5.30152L3.61318 5.19027ZM5.55508 2.73927L3.50527 5.19787L3.62048 5.29392L5.67029 2.83532L5.55508 2.73927Z" fill="#272727"/>
<path fill-rule="evenodd" clip-rule="evenodd" d="M12.2925 1.02612L11.835 1.43989L13.9552 3.91584L14.4127 3.50208L12.2925 1.02612ZM11.538 1.6957L11.0806 2.10947L13.1247 4.54955L13.5822 4.13579L11.538 1.6957ZM10.3295 2.78729L10.787 2.37353L12.8368 4.83213L12.3793 5.24589L10.3295 2.78729Z" fill="#272727"/>
<path d="M11.835 1.43989L11.7781 1.48867L11.7306 1.43322L11.7847 1.38426L11.835 1.43989ZM12.2925 1.02612L12.2422 0.970499L12.2994 0.918807L12.3495 0.977342L12.2925 1.02612ZM13.9552 3.91584L14.0055 3.97146L13.9483 4.02315L13.8982 3.96462L13.9552 3.91584ZM14.4127 3.50208L14.4696 3.45329L14.5171 3.50874L14.463 3.5577L14.4127 3.50208ZM11.0806 2.10947L11.0231 2.15763L10.9767 2.10228L11.0302 2.05384L11.0806 2.10947ZM11.538 1.6957L11.4877 1.64008L11.5455 1.58782L11.5955 1.64754L11.538 1.6957ZM13.1247 4.54955L13.175 4.60517L13.1172 4.65743L13.0672 4.59771L13.1247 4.54955ZM13.5822 4.13579L13.6397 4.08762L13.686 4.14297L13.6325 4.19141L13.5822 4.13579ZM10.787 2.37353L10.7367 2.31791L10.7946 2.26553L10.8446 2.3255L10.787 2.37353ZM10.3295 2.78729L10.2719 2.83532L10.2258 2.77999L10.2792 2.73167L10.3295 2.78729ZM12.8368 4.83213L12.8944 4.7841L12.9405 4.83943L12.8871 4.88776L12.8368 4.83213ZM12.3793 5.24589L12.4296 5.30152L12.3717 5.3539L12.3217 5.29392L12.3793 5.24589ZM11.7847 1.38426L12.2422 0.970499L12.3428 1.08175L11.8854 1.49551L11.7847 1.38426ZM13.8982 3.96462L11.7781 1.48867L11.892 1.3911L14.0121 3.86706L13.8982 3.96462ZM14.463 3.5577L14.0055 3.97146L13.9049 3.86021L14.3624 3.44645L14.463 3.5577ZM12.3495 0.977342L14.4696 3.45329L14.3557 3.55086L12.2356 1.0749L12.3495 0.977342ZM11.0302 2.05384L11.4877 1.64008L11.5883 1.75133L11.1309 2.16509L11.0302 2.05384ZM13.0672 4.59771L11.0231 2.15763L11.138 2.0613L13.1822 4.50139L13.0672 4.59771ZM13.6325 4.19141L13.175 4.60517L13.0744 4.49392L13.5319 4.08016L13.6325 4.19141ZM11.5955 1.64754L13.6397 4.08762L13.5247 4.18395L11.4805 1.74386L11.5955 1.64754ZM10.8373 2.42915L10.3798 2.84292L10.2792 2.73167L10.7367 2.31791L10.8373 2.42915ZM12.7792 4.88016L10.7294 2.42156L10.8446 2.3255L12.8944 4.7841L12.7792 4.88016ZM12.329 5.19027L12.7865 4.77651L12.8871 4.88776L12.4296 5.30152L12.329 5.19027ZM10.3871 2.73927L12.4369 5.19787L12.3217 5.29392L10.2719 2.83532L10.3871 2.73927Z" fill="#272727"/>
<path fill-rule="evenodd" clip-rule="evenodd" d="M3.64967 11.2458L4.10715 10.8321L1.98702 8.35613L1.52954 8.7699L3.64967 11.2458ZM4.40416 10.5763L4.86165 10.1625L2.81751 7.72242L2.36003 8.13619L4.40416 10.5763ZM5.61268 9.48468L5.1552 9.89844L3.10539 7.43984L3.56287 7.02608L5.61268 9.48468Z" fill="#272727"/>
<path d="M4.10715 10.8321L4.16412 10.7833L4.21159 10.8387L4.15746 10.8877L4.10715 10.8321ZM3.64967 11.2458L3.69998 11.3015L3.64282 11.3532L3.5927 11.2946L3.64967 11.2458ZM1.98702 8.35613L1.93671 8.30051L1.99387 8.24882L2.04399 8.30735L1.98702 8.35613ZM1.52954 8.7699L1.47257 8.81868L1.4251 8.76324L1.47923 8.71427L1.52954 8.7699ZM4.86165 10.1625L4.91914 10.1143L4.96551 10.1697L4.91195 10.2181L4.86165 10.1625ZM4.40416 10.5763L4.45447 10.6319L4.3967 10.6841L4.34667 10.6244L4.40416 10.5763ZM2.81751 7.72242L2.76721 7.6668L2.82498 7.61455L2.87501 7.67426L2.81751 7.72242ZM2.36003 8.13619L2.30254 8.18435L2.25617 8.129L2.30973 8.08056L2.36003 8.13619ZM5.1552 9.89844L5.20551 9.95407L5.1476 10.0064L5.0976 9.94647L5.1552 9.89844ZM5.61268 9.48468L5.67029 9.43665L5.71642 9.49198L5.66299 9.5403L5.61268 9.48468ZM3.10539 7.43984L3.04779 7.48787L3.00166 7.43254L3.05508 7.38422L3.10539 7.43984ZM3.56287 7.02608L3.51256 6.97045L3.57048 6.91808L3.62048 6.97805L3.56287 7.02608ZM4.15746 10.8877L3.69998 11.3015L3.59936 11.1902L4.05684 10.7765L4.15746 10.8877ZM2.04399 8.30735L4.16412 10.7833L4.05018 10.8809L1.93005 8.40492L2.04399 8.30735ZM1.47923 8.71427L1.93671 8.30051L2.03733 8.41176L1.57985 8.82552L1.47923 8.71427ZM3.5927 11.2946L1.47257 8.81868L1.58651 8.72112L3.70664 11.1971L3.5927 11.2946ZM4.91195 10.2181L4.45447 10.6319L4.35386 10.5206L4.81134 10.1069L4.91195 10.2181ZM2.87501 7.67426L4.91914 10.1143L4.80415 10.2107L2.76002 7.77059L2.87501 7.67426ZM2.30973 8.08056L2.76721 7.6668L2.86782 7.77805L2.41034 8.19181L2.30973 8.08056ZM4.34667 10.6244L2.30254 8.18435L2.41753 8.08802L4.46166 10.5281L4.34667 10.6244ZM5.1049 9.84282L5.56238 9.42905L5.66299 9.5403L5.20551 9.95407L5.1049 9.84282ZM3.163 7.39181L5.21281 9.85041L5.0976 9.94647L3.04779 7.48787L3.163 7.39181ZM3.61318 7.0817L3.1557 7.49547L3.05508 7.38422L3.51256 6.97045L3.61318 7.0817ZM5.55508 9.53271L3.50527 7.07411L3.62048 6.97805L5.67029 9.43665L5.55508 9.53271Z" fill="#272727"/>
<path fill-rule="evenodd" clip-rule="evenodd" d="M12.2925 11.2458L11.835 10.8321L13.9552 8.35613L14.4127 8.7699L12.2925 11.2458ZM11.538 10.5763L11.0806 10.1625L13.1247 7.72242L13.5822 8.13619L11.538 10.5763ZM10.3295 9.48468L10.787 9.89844L12.8368 7.43984L12.3793 7.02608L10.3295 9.48468Z" fill="#272727"/>
<path d="M11.835 10.8321L11.7781 10.7833L11.7306 10.8387L11.7847 10.8877L11.835 10.8321ZM12.2925 11.2458L12.2422 11.3015L12.2994 11.3532L12.3495 11.2946L12.2925 11.2458ZM13.9552 8.35613L14.0055 8.30051L13.9483 8.24882L13.8982 8.30735L13.9552 8.35613ZM14.4127 8.7699L14.4696 8.81868L14.5171 8.76324L14.463 8.71427L14.4127 8.7699ZM11.0806 10.1625L11.0231 10.1143L10.9767 10.1697L11.0302 10.2181L11.0806 10.1625ZM11.538 10.5763L11.4877 10.6319L11.5455 10.6841L11.5955 10.6244L11.538 10.5763ZM13.1247 7.72242L13.175 7.6668L13.1172 7.61455L13.0672 7.67426L13.1247 7.72242ZM13.5822 8.13619L13.6397 8.18435L13.686 8.129L13.6325 8.08056L13.5822 8.13619ZM10.787 9.89844L10.7367 9.95407L10.7946 10.0064L10.8446 9.94647L10.787 9.89844ZM10.3295 9.48468L10.2719 9.43665L10.2258 9.49198L10.2792 9.5403L10.3295 9.48468ZM12.8368 7.43984L12.8944 7.48787L12.9405 7.43254L12.8871 7.38422L12.8368 7.43984ZM12.3793 7.02608L12.4296 6.97045L12.3717 6.91808L12.3217 6.97805L12.3793 7.02608ZM11.7847 10.8877L12.2422 11.3015L12.3428 11.1902L11.8854 10.7765L11.7847 10.8877ZM13.8982 8.30735L11.7781 10.7833L11.892 10.8809L14.0121 8.40492L13.8982 8.30735ZM14.463 8.71427L14.0055 8.30051L13.9049 8.41176L14.3624 8.82552L14.463 8.71427ZM12.3495 11.2946L14.4696 8.81868L14.3557 8.72112L12.2356 11.1971L12.3495 11.2946ZM11.0302 10.2181L11.4877 10.6319L11.5883 10.5206L11.1309 10.1069L11.0302 10.2181ZM13.0672 7.67426L11.0231 10.1143L11.138 10.2107L13.1822 7.77059L13.0672 7.67426ZM13.6325 8.08056L13.175 7.6668L13.0744 7.77805L13.5319 8.19181L13.6325 8.08056ZM11.5955 10.6244L13.6397 8.18435L13.5247 8.08802L11.4805 10.5281L11.5955 10.6244ZM10.8373 9.84282L10.3798 9.42905L10.2792 9.5403L10.7367 9.95407L10.8373 9.84282ZM12.7792 7.39181L10.7294 9.85041L10.8446 9.94647L12.8944 7.48787L12.7792 7.39181ZM12.329 7.0817L12.7865 7.49547L12.8871 7.38422L12.4296 6.97045L12.329 7.0817ZM10.3871 9.53271L12.4369 7.07411L12.3217 6.97805L10.2719 9.43665L10.3871 9.53271Z" fill="#272727"/>
</g>
</g>
</svg>

<svg width="16" height="12" fill="none" xmlns="http://www.w3.org/2000/svg">
  <g mask="url(#KR_-_Korea_(South)__a)">
    <path fill-rule="evenodd" clip-rule="evenodd" d="M0 0v12h16V0H0z" fill="#F7FCFF"/>
    <g mask="url(#KR_-_Korea_(South)__b)">
      <path fill-rule="evenodd" clip-rule="evenodd" d="M7.893 9.286c1.708 0 3.093-1.418 3.093-3.168 0-1.749-1.385-3.167-3.093-3.167S4.8 4.37 4.8 6.118c0 1.75 1.385 3.168 3.093 3.168z" fill="#3D58DB"/>
      <g mask="url(#KR_-_Korea_(South)__c)">
        <path fill-rule="evenodd" clip-rule="evenodd" d="M11.094 6.361s-.173-1.493-1.459-1.574c-1.286-.082-1.632 1.095-1.707 1.406-.074.312-.261 1.143-1.615 1.143S4.837 5.222 4.837 5.222V2.73h6.257v3.63z" fill="#E31D1C"/>
      </g>
      <path fill-rule="evenodd" clip-rule="evenodd" d="M3.65 1.026l.457.414-2.12 2.476-.457-.414 2.12-2.476zm.754.67l.458.413-2.044 2.44-.458-.413 2.044-2.44zm1.209 1.091l-.458-.414-2.05 2.46.458.413 2.05-2.459z" fill="#272727"/>
      <path d="M4.107 1.44l.057.049.048-.056-.055-.049-.05.056zm-.457-.414L3.7.97 3.643.92l-.05.058.057.05zm-1.663 2.89l-.05.055.057.052.05-.058-.057-.05zm-.457-.414l-.057-.049-.048.056.054.049.05-.056zm3.332-1.393l.057.049.047-.056-.054-.048-.05.055zm-.458-.413l.05-.056-.057-.052-.05.06.057.048zM2.818 4.55l-.05.055.057.052.05-.06-.057-.047zm-.458-.414l-.057-.048-.047.055.054.048.05-.055zm2.795-1.763l.05-.055-.057-.053-.05.06.057.048zm.458.414l.057.048.046-.055-.053-.048-.05.055zM3.105 4.832l-.057-.048-.046.055.053.049.05-.056zm.458.414l-.05.055.057.053.05-.06-.057-.048zm.594-3.862L3.7.97l-.1.112.457.413.1-.11zm-2.113 2.58l2.12-2.475-.114-.098-2.12 2.476.114.098zm-.565-.406l.458.413.1-.11-.457-.415-.1.112zM3.593.978l-2.12 2.475.114.098 2.12-2.476-.114-.098zm1.319 1.076l-.458-.414-.1.111.457.414.101-.111zM2.875 4.598l2.044-2.44-.115-.097-2.044 2.44.115.097zM2.31 4.19l.457.414.1-.111-.457-.414-.1.111zm2.037-2.543l-2.044 2.44.115.096 2.044-2.44-.115-.097zm.758.781l.457.414.101-.111-.457-.414-.101.111zM3.163 4.88l2.05-2.458-.115-.097-2.05 2.46.115.095zm.45.31l-.457-.414-.1.112.457.413.1-.11zm1.942-2.45l-2.05 2.458.115.096 2.05-2.459-.115-.096z" fill="#272727"/>
      <path fill-rule="evenodd" clip-rule="evenodd" d="M12.293 1.026l-.458.414 2.12 2.476.458-.414-2.12-2.476zm-.755.67l-.457.413 2.044 2.44.457-.413-2.044-2.44zm-1.209 1.091l.458-.414 2.05 2.46-.458.413-2.05-2.459z" fill="#272727"/>
      <path d="M11.835 1.44l-.057.049-.047-.056.054-.049.05.056zm.457-.414l-.05-.056.058-.05.05.058-.056.05zm1.663 2.89l.05.055-.057.052-.05-.058.057-.05zm.458-.414l.057-.049.047.056-.054.049-.05-.056zM11.08 2.109l-.058.049-.046-.056.053-.048.05.055zm.457-.413l-.05-.056.058-.052.05.06-.058.048zm1.587 2.854l.05.055-.058.052-.05-.06.058-.047zm.457-.414l.058-.048.046.055-.053.048-.05-.055zm-2.795-1.763l-.05-.055.058-.053.05.06-.058.048zm-.458.414l-.057.048-.046-.055.053-.048.05.055zm2.508 2.045l.057-.048.046.055-.053.049-.05-.056zm-.458.414l.05.055-.057.053-.05-.06.057-.048zm-.594-3.862l.457-.414.1.112-.457.413-.1-.11zm2.113 2.58l-2.12-2.475.114-.098 2.12 2.476-.114.098zm.565-.406l-.457.413-.101-.11.457-.415.101.112zM12.35.978l2.12 2.475-.114.098-2.12-2.476.114-.098zm-1.32 1.076l.458-.414.1.111-.457.414-.1-.111zm2.037 2.544l-2.044-2.44.115-.097 2.044 2.44-.115.097zm.566-.407l-.458.414-.1-.111.457-.414.1.111zm-2.037-2.543l2.044 2.44-.115.096-2.045-2.44.115-.097zm-.759.781l-.457.414-.1-.111.457-.414.1.111zM12.78 4.88l-2.05-2.458.116-.097 2.05 2.46-.116.095zm-.45.31l.457-.414.101.112-.457.413-.101-.11zm-1.942-2.45l2.05 2.458-.115.096-2.05-2.459.115-.096z" fill="#272727"/>
      <path fill-rule="evenodd" clip-rule="evenodd" d="M3.65 11.246l.457-.414-2.12-2.476-.457.414 2.12 2.476zm.754-.67l.458-.414-2.044-2.44-.458.414 2.044 2.44zm1.209-1.091l-.458.413-2.05-2.458.458-.414 2.05 2.459z" fill="#272727"/>
      <path d="M4.107 10.832l.057-.049.048.056-.055.049-.05-.056zm-.457.414l.05.056-.057.051-.05-.058.057-.05zm-1.663-2.89l-.05-.055.057-.052.05.058-.057.05zm-.457.414l-.057.049-.048-.056.054-.049.05.056zm3.332 1.393l.057-.049.047.056-.054.048-.05-.056zm-.458.413l.05.056-.057.052-.05-.06.057-.048zM2.818 7.722l-.05-.055.057-.052.05.06-.057.047zm-.458.414l-.057.048-.047-.055.054-.048.05.055zm2.795 1.762l.05.056-.057.053-.05-.06.057-.049zm.458-.413l.057-.048.046.055-.053.048-.05-.055zM3.105 7.44l-.057.048-.046-.055.053-.049.05.056zm.458-.414l-.05-.056.057-.052.05.06-.057.048zm.594 3.862l-.457.414-.1-.112.457-.413.1.11zm-2.113-2.58l2.12 2.475-.114.098-2.12-2.476.114-.098zm-.565.406l.458-.413.1.11-.457.415-.1-.112zm2.114 2.58L1.473 8.82l.114-.098 2.12 2.476-.114.098zm1.319-1.076l-.458.414-.1-.111.457-.414.101.111zM2.875 7.674l2.044 2.44-.115.097L2.76 7.77l.115-.097zm-.565.407l.457-.414.1.111-.457.414-.1-.111zm2.037 2.543l-2.044-2.44.115-.096 2.044 2.44-.115.096zm.758-.781l.457-.414.101.111-.457.414-.101-.111zM3.163 7.392l2.05 2.458-.115.096-2.05-2.458.115-.096zm.45-.31l-.457.413-.1-.11.457-.415.1.112zm1.942 2.45l-2.05-2.458.115-.096 2.05 2.459-.115.096z" fill="#272727"/>
      <path fill-rule="evenodd" clip-rule="evenodd" d="M12.293 11.246l-.458-.414 2.12-2.476.458.414-2.12 2.476zm-.755-.67l-.457-.414 2.044-2.44.457.414-2.044 2.44zm-1.209-1.091l.458.413 2.05-2.458-.458-.414-2.05 2.459z" fill="#272727"/>
      <path d="M11.835 10.832l-.057-.049-.047.056.054.049.05-.056zm.457.414l-.05.056.057.051.05-.058-.056-.05zm1.663-2.89l.05-.055-.057-.052-.05.058.057.05zm.458.414l.057.049.047-.056-.054-.049-.05.056zm-3.332 1.393l-.058-.049-.046.056.053.048.05-.056zm.457.413l-.05.056.058.052.05-.06-.058-.048zm1.587-2.854l.05-.055-.058-.052-.05.06.058.047zm.457.414l.058.048.046-.055-.053-.048-.05.055zm-2.795 1.762l-.05.056.058.053.05-.06-.058-.049zm-.458-.413l-.057-.048-.046.055.053.048.05-.055zm2.508-2.045l.057.048.046-.055-.053-.049-.05.056zm-.458-.414l.05-.056-.057-.052-.05.06.057.048zm-.594 3.862l.457.414.1-.112-.457-.413-.1.11zm2.113-2.58l-2.12 2.475.114.098 2.12-2.476-.114-.098zm.565.406l-.457-.413-.101.11.457.415.101-.112zm-2.113 2.58l2.12-2.475-.114-.098-2.12 2.476.114.098zm-1.32-1.076l.458.414.1-.111-.457-.414-.1.111zm2.037-2.544l-2.044 2.44.115.097 2.044-2.44-.115-.097zm.566.407l-.458-.414-.1.111.457.414.1-.111zm-2.037 2.543l2.044-2.44-.115-.096-2.045 2.44.115.096zm-.759-.781l-.457-.414-.1.111.457.414.1-.111zm1.942-2.451L10.73 9.85l.116.096 2.05-2.458-.116-.096zm-.45-.31l.457.413.101-.11-.457-.415-.101.112zm-1.942 2.45l2.05-2.458-.115-.096-2.05 2.459.115.096z" fill="#272727"/>
    </g>
  </g>
</svg>
